X:1
T:Ariadne.(2 voices). TWC.293
T:Ariadne.(2 voices). TWC.293
T:La Trenise
C:La Trenise
%%score 1 2
L:1/8
Q:1/4=100
M:2/4
K:G
V:1 treble 
V:2 bass 
V:1
"^Quadrilles   No. 2.  2d. Set" GG c/B/A/G/ | dd d2 | e/d/e/^c/ d/c/d/B/ | c/B/c/A/ c/B/A/G/ | %4
 GG c/B/A/G/ | dd d2 | e/d/e/^c/ d/c/d/B/ | d/c/B/A/ G2!fine! :| D/E/F/G/ AF | G/A/B/c/ dB | %10
 c/B/c/d/ e/d/c/B/ | A/^G/A/G/ A/=G/F/E/ | D/E/F/G/ AF | G/A/B/c/ dc/B/ | c/B/c/d/ e/d/c/B/ | %15
 A/B/^c/A/ d2 ||[K:Gmin] BB c/B/A/G/ | dd d2 | d/e/d/c/ BB | cB/A/ BG | BB c/B/A/G/ | dd de | %22
 dc/B/ A/B/c/A/ |"^D.C. Senza replica" c/B/A/B/ G2 |] %24
V:2
 G,,D,B,,D, | G,,D,B,,D, | C,2 B,,G,, | D,D, D, z | G,,D,B,,D, | G,,D,B,,D, | C,2 B,,G,, | %7
 D,D,, G,,2 :| G,,2 D,2 | E,F, G,2 | C,2 G,,2 | D,D, D, z | G,2 D,2 | E,F, G,2 | C,2 G,,G, | %15
 A,A,, D,/C,/B,,/A,,/ ||[K:Gmin] [G,,G,][G,,G,] [G,,G,]2 | [G,,B,,G,][G,,B,,G,] [G,,B,,G,]2 | %18
 G,,G, G,,G, | D,D,, G,,2 | [G,,G,][G,,G,] [G,,G,]2 | [G,,B,,G,][G,,B,,G,] [G,,B,,G,]2 | %22
 G,,G, C,C, | D,D,, G,,2 |] %24

